!!!!SEGMENT: pl-cz--iii-176--003_elsner-jozef--hymni-statio-tantum-ergo.krn
!!!cenid: 18xx:20
!!!COM: Elsner, Józef
!!!COM-rismID: pe30000957
!!!CDT: 1769/06/01-1854/04/18
!!!CNT: Polish
!!!GTL: Hymni statio
!!!OTL: Tantum ergo
!!!PDT:
!!!AGN: Sacred
!!!SMS-siglum: PL-CZ
!!!SMS-shelfmark: III-176
!!!SMS-shelfwork: 003 G
!!!NIFC-rismSourceID: 300000242
!!!NIFC-rismChildID: 300000245
!!!NIFC-islandoraID: pl-cz:35104
!!!URL-pdf-islandora: https://repozytorium.nifc.pl/islandora/object/pl-cz%3A35104/datastream/PDF/view
!!!URL-scan: https://polish.musicsources.pl/pl/lokalizacje/galeria/rekopisy/6845/1 @EN{Scan on Polish Music Sources Website} @PL{Skany w portalu Dziedzictwo Muzyki Polskiej w otwartym dostępie}
!!!ONB-nifc:
!!!AIN: 1 alto 1 cello 1 empty 1 tenor 1 vox
!!!key:
**kern	**dynam	**kern	**text	**kern	**text	**dynam	**kern	**text	**kern	**text	**dynam
*part5	*part5	*part4	*part4	*part3	*part3	*part3	*part2	*part2	*part1	*part1	*part1
*staff5	*	*staff4	*staff4	*staff3	*staff3	*	*staff2	*staff2	*staff1	*staff1	*
*Icello	*	*Iempty	*	*Itenor	*	*	*Ialto	*	*Ivox	*	*
*I"Violone	*	*I"Baſso	*	*I"Tenore	*	*	*I"Alto	*	*I"Canto	*	*
*I'Vlne	*	*I'B	*	*I'T	*	*	*I'A	*	*I'C	*	*
*clefF4	*	*clefF4	*	*clefC4	*	*	*clefC3	*	*clefC1	*	*
*k[f#c#]	*	*k[f#c#]	*	*k[f#c#]	*	*	*k[f#c#]	*	*k[c# f#]	*	*
*D:	*	*D:	*	*D:	*	*	*D:	*	*D:	*	*
*M3/4	*	*M3/4	*	*M3/4	*	*	*M3/4	*	*M3/4	*	*
=1	=1	=1	=1	=1	=1	=1	=1	=1	=1	=1	=1
!LO:TX:a:t=Andante	!	!LO:TX:a:t=Andante	!	!LO:TX:a:t=Andante	!	!	!LO:TX:a:t=Andante	!	!LO:TX:a:t=Andante	!	!
!	!	!	!	!	!	!	!	!	!LO:SIC:v=odwrócona kolejność znaków przykluczowych	!	!
!LO:SIC:v=odwrócona kolejność znaków przykluczowych (cis, fis), laska z prawej strony	!	!LO:SIC:v=odwrócona kolejność znaków przykluczowych (cis, fis), laska z prawej strony	!	!LO:SIC:V=odwrócona kolejność znaków przykluczowych (cis	!	!	!	!	!	!	!
*2\right	*	*2\right	*	*2\right	*	*	*2\right	*	*2\right	*	*
[2.D\	.	[2.D\	Tan-	[2.A\	Tan-	.	[2.f#\	Tan-	[2.dd\	Tan-	<
.	.	.	.	.	.	.	.	.	.	.	[
=2	=2	=2	=2	=2	=2	=2	=2	=2	=2	=2	=2
4D\]	.	4D\]	.	2A\]	.	.	4f#\]	.	4dd\]	.	>
.	.	.	.	.	.	.	.	.	.	.	]
4E\	.	4E\	.	.	.	.	4g\	.	4cc#\	.	.
4F#\	.	4F#\	-tum	4A\	-tum	.	4d\	-tum	4dd\	-tum	.
=3	=3	=3	=3	=3	=3	=3	=3	=3	=3	=3	=3
[2.G\	.	[2.G\	er-	[2.B\	er-	.	[2.d\	er-	[2.b\	er-	.
=4	=4	=4	=4	=4	=4	=4	=4	=4	=4	=4	=4
4G\]	.	4G\]	.	2B\]	.	.	4d\]	.	4b\]	.	.
4F#\	.	4F#\	.	.	.	.	4d#X\	.	4a\	.	.
4E\	.	4E\	-go	4B\	-go	.	4e\	-go	4g\	-go	.
=5	=5	=5	=5	=5	=5	=5	=5	=5	=5	=5	=5
!	!	!LO:PB:g=original	!	!	!	!	!	!	!	!	!
2.F#\	.	2.F#\	ſa-	2.B\	ſa-	.	2.dn\	ſa-	2.f#/	ſa-	.
=6	=6	=6	=6	=6	=6	=6	=6	=6	=6	=6	=6
2.F#\	.	2.F#\	-cra-	2.c#\	-cra-	.	2.e\	-cra-	2.a#X\	-cra-	.
=7	=7	=7	=7	=7	=7	=7	=7	=7	=7	=7	=7
!	!	!	!	!LO:PB:g=original	!	!	!LO:PB:g=original	!	!LO:PB:g=original	!	!
2.BB/	.	2.BB/	-men-	2.B\	-men-	.	2.d\	-men-	2.b\	-men-	.
=8	=8	=8	=8	=8	=8	=8	=8	=8	=8	=8	=8
!LO:PB:g=original	!	!	!	!	!	!	!	!	!	!	!
4BB/	.	4BB/	-tum	4B\	-tum	.	4d\	-tum	4b\	-tum	.
4BB/	.	4BB/	ve-	4d\	ve-	.	4f#\	ve-	4b\	ve-	ff
!LO:SIC:v=zapis:	!	!	!	!	!	!	!	!	!	!	!
4AA/	.	4AA/	-ne-	4e\	-ne-	.	4g\	-ne-	4cc#X\	-ne-	.
!	!LO:DY:b	!	!	!	!	!	!	!	!	!	!
.	f	.	.	.	.	.	.	.	.	.	.
=9	=9	=9	=9	=9	=9	=9	=9	=9	=9	=9	=9
(>4D/	.	(<4D/	-re-	2d\	-re-	.	2f#\	-re-	2dd\	-re-	.
4BB/	.	4BB/)	.	.	.	.	.	.	.	.	.
4GG/)	.	4GG/	-mur	4d\	-mur	.	4b\	-mur	4ee\	-mur	.
=10	=10	=10	=10	=10	=10	=10	=10	=10	=10	=10	=10
4AA/	.	(>4AA/	cer-	(>2.d\	cer-	.	[2.a\	cer-	[2.ff#\	cer-	.
!LO:SIC:v=zapis łuku niejednoznaczny	!	!	!	!	!	!	!	!	!	!	!
(<4D/	.	4D/	.	.	.	.	.	.	.	.	.
4F#/	.	4F#\	.	.	.	.	.	.	.	.	.
=11	=11	=11	=11	=11	=11	=11	=11	=11	=11	=11	=11
2A\	.	2A\)	.	4d\	.	.	4a\]	.	4ff#\]	.	.
.	.	.	.	4e\)	.	.	4cc#\	.	4gg\	.	.
4A\)	.	4A\	-nu-	4d\	-nu-	.	4dd\	-nu-	4ff#\	-nu-	.
=12	=12	=12	=12	=12	=12	=12	=12	=12	=12	=12	=12
2.A\	.	2.A\	-i	2.c#\	-i	.	2.a\	-i	2.ee\	-i	.
=13	=13	=13	=13	=13	=13	=13	=13	=13	=13	=13	=13
[2.D\	.	[2.D\	Et	[2.A\	Et	.	[2.f#\	Et	[2.dd\	Et	.
=14	=14	=14	=14	=14	=14	=14	=14	=14	=14	=14	=14
!	!	!LO:PB:g=original	!	!	!	!	!	!	!	!	!
4D\]	.	4D\]	.	2A\]	.	.	4f#\]	.	4dd\]	.	.
4E\	.	4E\	.	.	.	.	4g\	.	4cc#\	.	.
4F#\	.	4F#\	an-	4A\	an-	.	4d\	an-	4dd\	an-	.
=15	=15	=15	=15	=15	=15	=15	=15	=15	=15	=15	=15
!	!	!LO:SIC:v==łuk do 3. ćwierćnuty w następnym takcie, delikatną kreską i prawd. inną ręką	!	!	!	!	!	!	!	!	!
[2.G\	.	2.G\	-ti-	(>2.B\	-ti-	.	[2.d\	-ti-	[2.b\	-ti-	.
=16	=16	=16	=16	=16	=16	=16	=16	=16	=16	=16	=16
4G\]	.	4G\	.	2d\)	.	.	2d\]	.	4b\]	.	.
4F#\	.	4F#\	.	.	.	.	.	.	4a\	.	.
!	!	!	!	!LO:SIC:v=sic!(Notatka Kamila Watkowskiego. Nie wiem o co chodzi.LK)	!	!	!LO:SIC:v= (Notatka Kamila Watkowskiego. Nie wiem o co chodzi.LK)	!	!LO:SIC:v=sic!(Notatka Kamila Watkowskiego. Nie wiem o co chodzi.LK)	!	!
4E\	.	4E\	-qum	4d\	-qum	.	4d\	-qum	4g\	-qum	.
=17	=17	=17	=17	=17	=17	=17	=17	=17	=17	=17	=17
!	!	!	!	!LO:PB:g=original	!	!	!LO:PB:g=original	!	!	!	!
2.D\	.	2.D/	do-	2.d\	do-	.	2.d\	do-	2.f#/	do-	.
=18	=18	=18	=18	=18	=18	=18	=18	=18	=18	=18	=18
2.BB/	.	2.BB/	-cu-	2.d\	-cu-	.	2.d\	-cu-	2.g#X/	-cu-	.
=19	=19	=19	=19	=19	=19	=19	=19	=19	=19	=19	=19
[2.AA/	.	2.AA/	-men-	(>2.c#\	-men-	.	(>2.e\	-men-	(>2.a\	-men-	.
=20	=20	=20	=20	=20	=20	=20	=20	=20	=20	=20	=20
!LO:PB:g=original	!	!	!	!	!	!	!	!	!	!	!
4AA/]	.	4AA/	-tum	4c#\)	-tum	.	4e\)	-tum	4a\)	-tum	.
!	!	!	!	!	!	!	!	!	!LO:TX:a:t=P:problem=w źródle tekst przesunięty, obie sylaby (novo) pod 3. ćwierćnutą	!	!
4A\	.	4A\	no-	4c#\	no-	.	4e\	no-	4a\	no-	.
4G#X\	.	4G#X\	-vo	4B\	-vo	.	4e\	-vo	4b\	-vo	.
=21	=21	=21	=21	=21	=21	=21	=21	=21	=21	=21	=21
!	!	!LO:SIC:v=łuk do 3. ćwierćnuty w tym takcie, delikatną kreską i prawd. inną ręką	!	!	!	!	!	!	!	!	!
4F#\	.	4F#\	ce-	[2.A\	ce-	.	2.a\	ce-	[2.cc#\	ce-	.
4E\	.	4E\	.	.	.	.	.	.	.	.	.
4D#X\	.	4D#X\	.	.	.	.	.	.	.	.	.
=22	=22	=22	=22	=22	=22	=22	=22	=22	=22	=22	=22
!	!	!LO:PB:g=original	!	!	!	!	!	!	!	!	!
2E\	.	2E\	.	4A\]	.	.	2e\	.	4cc#\]	.	.
.	.	.	.	4B\	.	.	.	.	4dd\	.	.
4E\	.	4E\	-dat	4A\	-dat	.	4e\	-dat	4cc#\	-dat	.
=23	=23	=23	=23	=23	=23	=23	=23	=23	=23	=23	=23
2E\	.	2E\	ri-	2A\	ri-	.	2e\	ri-	2b\	ri-	.
4E\	.	4E\	-tu-	4G#X\	-tu-	.	8e\L	-tu-	4b\	-tu-	.
.	.	.	.	.	.	.	8d\J	.	.	.	.
=24	=24	=24	=24	=24	=24	=24	=24	=24	=24	=24	=24
2.A\	.	2.A\	-i	(>2A\	-i	.	(>2c#\	-i	2.a\	-i	.
.	.	.	.	8A\L	.	.	8c#\L	.	.	.	.
.	.	.	.	8B\J)	.	.	8d\J)	.	.	.	.
=25	=25	=25	=25	=25	=25	=25	=25	=25	=25	=25	=25
2A\	.	2A\	prae-	2c#\	præ-	.	2e\	præ-	(>4a\	prae-	.
.	.	.	.	.	.	.	.	.	4cc#\)	.	.
4A\	.	4A\	-stet	4c#\	-stet	.	4e\	-stet	4ee\'	-stet	.
=26	=26	=26	=26	=26	=26	=26	=26	=26	=26	=26	=26
2A\	.	2A\	fi-	2c#\	fi-	.	2e\	fi-	2gg\	fi-	.
4A\	.	4A\	-des	4c#\	-des	.	4e\	-des	4ee\	-des	.
=27	=27	=27	=27	=27	=27	=27	=27	=27	=27	=27	=27
!	!	!	!	!	!	!	!LO:PB:g=original	!	!LO:PB:g=original	!	!
2A\	.	2A\	ſup-	2d\	ſup-	.	2f#\	ſup-	(>4a\	ſup-	.
.	.	.	.	.	.	.	.	.	4dd\)	.	.
4A\	.	4A\	-ple-	4d\	-ple-	.	4f#\	-ple-	4ff#\'	-ple-	.
=28	=28	=28	=28	=28	=28	=28	=28	=28	=28	=28	=28
2A\	.	2A\	-men-	2d\	-men-	.	2f#\	-men-	2aa\	-men-	.
4A\	.	4A\	-tum	4d\	-tum	.	4f#\	-tum	4ff#\	-tum	.
=29	=29	=29	=29	=29	=29	=29	=29	=29	=29	=29	=29
2A\	.	2A\	ſen-	2B\	ſen-	.	2g#X\	ſen-	(>4dd\	ſen-	.
.	.	.	.	.	.	.	.	.	4b\)	.	.
4A\	.	4A\	-su-	4B\	-su-	.	4g#\	-su-	4ee\	-su-	.
=30	=30	=30	=30	=30	=30	=30	=30	=30	=30	=30	=30
!	!	!LO:PB:g=original	!	!	!	!	!	!	!	!	!
2A\	.	2A\	-um	2c#\	-um	.	2a\	-um	(>4cc#\	-um	.
.	.	.	.	.	.	.	.	.	4a\)	.	.
4A\	.	4A\	de-	4c#\	de-	.	4a\	de-	4ee\	de-	.
=31	=31	=31	=31	=31	=31	=31	=31	=31	=31	=31	=31
2A\	.	2A\	-fec-	2B\	-fec-	.	2g#X\	-fec-	(>4dd\	-fec-	.
.	.	.	.	.	.	.	.	.	4b\)	.	.
!	!	!	!	!LO:SIC:v=nad tą nutą pochyła kreseczka, wygląda na zapisaną nieintencjonalnie	!	!	!	!	!	!	!
4A\	.	4A\	-tu-	4B\	-tu-	.	4g#\	-tu-	4ee\	-tu-	.
=32	=32	=32	=32	=32	=32	=32	=32	=32	=32	=32	=32
!LO:PB:g=original	!	!	!	!	!	!	!	!	!	!	!
2.A\	.	2.A\	-i	2A\	-i	.	2a\	-i	2cc#\	-i	.
.	.	.	.	(>8A\L	Ge-	.	(>8c#\L	Ge-	4r	.	.
.	.	.	.	8B\J	.	.	8d\J	.	.	.	.
=33	=33	=33	=33	=33	=33	=33	=33	=33	=33	=33	=33
2A\	.	2A\	Ge-	2c#\)	.	.	2e\)	.	(>4a\	Ge-	.
.	.	.	.	.	.	.	.	.	4cc#\)	.	.
4A\	.	4A\	-ni-	4c#\	-ni-	.	4e\	-ni-	4ee\	-ni-	.
=34	=34	=34	=34	=34	=34	=34	=34	=34	=34	=34	=34
2A\	.	2A\	-to-	2c#\	-to-	.	2e\	-to-	2gg\	-to-	.
!	!	!LO:SIC:v=między tą nutą a następną wpisana jest (zapewne nieintencjonalnie) rozmazana kropka	!	!LO:SIC:v==za tą nutą kropka	!	!	!	!	!	!	!
4A\	.	4A\	-ri	4c#\	-ri	.	4e\	-ri	4ee\	-ri,	.
=35	=35	=35	=35	=35	=35	=35	=35	=35	=35	=35	=35
2A\	.	2A\	Ge-	2d\	Ge-	.	2f#\	Ge-	(>4a\	Ge-	.
.	.	.	.	.	.	.	.	.	4dd\)	.	.
4A\	.	4A\	-ni-	4d\	-ni-	.	4f#\	-ni-	4ff#\	-ni-	.
=36	=36	=36	=36	=36	=36	=36	=36	=36	=36	=36	=36
2A\	.	2A\	-to-	2d\	-to-	.	2f#\	-to-	2aa\	-to-	.
4A\	.	4A\	-que	4d\	-que	.	4f#\	-que	4ff#\	-que	.
=37	=37	=37	=37	=37	=37	=37	=37	=37	=37	=37	=37
!	!	!	!	!LO:PB:g=original	!	!	!LO:PB:g=original	!	!LO:PB:g=original	!	!
2A#X\	.	2A#X\	laus	2c#\	laus	.	2f#\	laus	2ff#\	laus	.
4A#\	.	4A#\	et	4c#\	et	.	4f#\	et	4ee\	et	.
=38	=38	=38	=38	=38	=38	=38	=38	=38	=38	=38	=38
2B\	.	2B\	ju-	2d\	ju-	.	2f#\	ju-	2dd\	ju-	.
4A\	.	4A\	-bi-	4f#\	-bi-	.	4f#\	-bi-	4cc#\	-bi-	.
=39	=39	=39	=39	=39	=39	=39	=39	=39	=39	=39	=39
!	!	!LO:PB:g=original	!	!	!	!	!	!	!	!	!
2G\	.	2G\	-la-	2B\	-la-	.	2f#\	-la-	2b\	-la-	.
4G\	.	4G\	-ti-	4B\	-ti-	.	4e#X\	-ti-	4b\	-ti-	.
=40	=40	=40	=40	=40	=40	=40	=40	=40	=40	=40	=40
2.F#\	.	2.F#\	-o	2.c#\	-o	.	2.f#\	-o	2.a#X\	-o	.
=41	=41	=41	=41	=41	=41	=41	=41	=41	=41	=41	=41
2.E\	.	2.E\	ſa-	2.A\	ſa-	.	2.g\	ſa-	2.cc#\	ſa-	<
.	.	.	.	.	.	.	.	.	.	.	[
=42	=42	=42	=42	=42	=42	=42	=42	=42	=42	=42	=42
2E\	.	2E\	-lus	2A\	-lus	.	2g\	-lus	2cc#\	-lus	>
4r	.	4r	.	4r	.	.	4r	.	4r	.	]
=43	=43	=43	=43	=43	=43	=43	=43	=43	=43	=43	=43
!LO:PB:g=original	!	!	!	!	!	!	!	!	!	!	!
2.D\	.	2.D\	ho-	2.A\	ho-	.	2.f#\	ho-	2.dd\	ho-	<
.	.	.	.	.	.	.	.	.	.	.	[
=44	=44	=44	=44	=44	=44	=44	=44	=44	=44	=44	=44
2D\	.	2D\	-nor	2A\	-nor	.	2f#\	-nor	2dd\	-nor	>
4r	.	4r	.	4r	.	.	4r	.	4r	.	]
=45	=45	=45	=45	=45	=45	=45	=45	=45	=45	=45	=45
!LO:SIC:v==zapis:	!	!	!	!	!	!	!	!	!	!	!
!	!LO:DY:b	!	!	!	!	!	!	!	!	!	!
4.BB/	f	4.BB/	Vir-	4.d\	Vir-	.	4.g\	Vir-	4.dd\	Vir-	f
8BB/L	.	8BB/	-tus	8d\	-tus	.	8g\	-tus	8dd\	-tus	.
8BB/	.	8BB/	quo-	8d\	quo-	.	8g\	quo-	8dd\	quo-	.
8BB/J	.	8BB/	-que	8d\	-que	.	8g\	-que	8dd\	-que	.
=46	=46	=46	=46	=46	=46	=46	=46	=46	=46	=46	=46
!	!	!	!	!	!	!LO:PB:g=original	!	!	!	!	!
2AA/	.	2AA/	ſit	2e\	si	.	2g\	ſit	2cc#X\	ſit	.
4AA/	.	4AA/	et	4c#\	et	.	4e\	et	(>8ee\L	et	.
!	!	!	!	!	!	!	!	!	!LO:SIC:v=między tą nutą a następną wpisana jest kropka (znak staccata, oddzielenie dwóch łuków?)-notatka Kamil Watkowski	!	!
.	.	.	.	.	.	.	.	.	8ff#\J)	.	.
=47	=47	=47	=47	=47	=47	=47	=47	=47	=47	=47	=47
!	!	!	!	!LO:PB:g=original	!	!	!	!	!LO:PB:g=original	!	!
2AA/	.	2AA/	be-	2c#\	be-	.	2e\	be-	(>4gg\	be-	.
.	.	.	.	.	.	.	.	.	4ee\)	.	.
4AA/	.	4AA/	-ne-	4c#\	-ne-	.	4e\	-ne-	4cc#\	-ne-	.
=48	=48	=48	=48	=48	=48	=48	=48	=48	=48	=48	=48
!	!	!LO:PB:g=original	!	!	!	!	!	!	!	!	!
2AA/	.	2AA/	-di-	2c#\	-di-	.	2e\	-di-	2a\	-di-	.
4AA/	.	4AA/	-cti-	4c#\	-cti-	.	4e\	-cti-	(>8b\L	-cti-	.
.	.	.	.	.	.	.	.	.	8a\J)	.	.
=49	=49	=49	=49	=49	=49	=49	=49	=49	=49	=49	=49
2AA/	.	2AA/	-o	2c#\	-o	.	2e\	-o	(>4a\	-o	.
.	.	.	.	.	.	.	.	.	4b\	.	.
4r	.	4r	.	4r	.	.	4r	.	4cc#\)	.	.
=50	=50	=50	=50	=50	=50	=50	=50	=50	=50	=50	=50
!	!	!	!	!	!	!LO:DY:rj	!	!	!	!	!LO:DY:rj
!	!LO:DY:b	!	!	!	!	!LO:DY:b	!	!	!	!	!LO:DY:a
[2.D\	p	[2.D\	pro-	[2.A\	pro-	p	2.f#\	pro-	[2.dd\	pro-	p
=51	=51	=51	=51	=51	=51	=51	=51	=51	=51	=51	=51
4D\]	.	4D\]	.	2A\]	.	.	4f#\	.	4dd\]	.	.
4E\	.	4E\	.	.	.	.	4g\	.	4cc#\	.	.
4F#\	.	4F#\'	-ce-	4A\	-ce-	.	4d\	-ce-	4dd\	-ce-	.
=52	=52	=52	=52	=52	=52	=52	=52	=52	=52	=52	=52
!	!	!LO:SIC:v==wpisana innym tuszem kropka na trzeciej linii, nieco na prawo od kropki przy nucie	!	!	!	!	!	!	!	!	!
[2.G\	.	[2.G\	-den-	2.B\	-den-	.	2.d\	-den-	[2.b\	-den-	.
=53	=53	=53	=53	=53	=53	=53	=53	=53	=53	=53	=53
4G\]	.	4G\]	.	2B\	.	.	4d\	.	4b\]	.	.
4F#\	.	4F#\	.	.	.	.	4d#X\	.	4a\	.	.
4E\	.	4E\	-ti	4B\	-ti	.	4e\	-ti	4g\	-ti	.
=54	=54	=54	=54	=54	=54	=54	=54	=54	=54	=54	=54
!LO:PB:g=original	!	!	!	!	!	!	!	!	!	!	!
2.F#\	.	2.F#\	ab	2.B\	ab	.	2.dn\	ab	2.f#/	ab	.
=55	=55	=55	=55	=55	=55	=55	=55	=55	=55	=55	=55
2.F#\	.	2.F#\	u-	2.c#\	u-	.	2.e\	u-	2.a#X\	u-	.
=56	=56	=56	=56	=56	=56	=56	=56	=56	=56	=56	=56
!	!	!	!	!	!	!	!LO:PB:g=original	!	!	!	!
2.BB/	.	2.BB/	-tro-	2.B\	-tro-	.	2.d\	-tro-	(>2.b\	-tro-	.
=57	=57	=57	=57	=57	=57	=57	=57	=57	=57	=57	=57
4BB/	.	4BB/	-que	4B\	-que	.	4d\	-que	4b\)	-que	.
!LO:SIC:v=zapis: fo	!	!	!	!	!	!	!	!	!	!	!
.	.	.	.	.	.	.	.	.	.	.	f
!	!LO:DY:b	!	!	!	!	!	!	!	!	!	!
4BB/	f	4BB/	com-	4d\	com-	.	4f#\	com-	4b\	com-	.
4AA/	.	4AA/	-par	4e\	-par	.	4g\	-par	4cc#\	-par	.
=58	=58	=58	=58	=58	=58	=58	=58	=58	=58	=58	=58
!	!	!	!	!LO:PB:g=original	!	!	!	!	!	!	!
(>4D/	.	(<4D/	ſit	2d\	ſit	.	2f#\	ſit	2dd\	ſit	.
4BB/	.	4BB/)	.	.	.	.	.	.	.	.	.
4GG)/	.	4GG/	lau-	4d\	lau-	.	4b\	lau-	4ee\	lau-	.
=59	=59	=59	=59	=59	=59	=59	=59	=59	=59	=59	=59
(>4AA/	.	(<4AA/	-da-	(>2.d\	-da-	.	[2.a\	-da-	[2.ff#\	-da-	.
4D/	.	4D/	.	.	.	.	.	.	.	.	.
4F#)/	.	4F#/	.	.	.	.	.	.	.	.	.
=60	=60	=60	=60	=60	=60	=60	=60	=60	=60	=60	=60
2A\'	.	2A\)	.	4d\	.	.	4a\]	.	4ff#\]	.	.
.	.	.	.	4c#\)	.	.	4g\	.	4ee\	.	.
!	!	!	!	!	!	!	!	!	!LO:SIC:o:v=w źródle wysokość nuty wpisana niepewnie, nad główką wpisane jest słownie "cis."	!	!
4A\	.	4A\	-ti-	4A\	-ti-	.	4e\	-ti-	4cc#\	-ti-	.
=61	=61	=61	=61	=61	=61	=61	=61	=61	=61	=61	=61
4D/	.	4D/	-o	4A\	-o	.	4f#\	-o	4dd\	-o	.
4D/	.	4D/	com-	4A\	com-	.	4f#\	com-	4dd\	com-	.
4C#/	.	4C#/	-par	4A\	-par	.	4e\	-par	4ee\	-par	.
=62	=62	=62	=62	=62	=62	=62	=62	=62	=62	=62	=62
4BB/	.	4BB/	ſit	(>2.d\	ſit	.	2.d\	ſit	[2.ff#\	-ſit	.
4AA/	.	4AA/	.	.	.	.	.	.	.	.	.
4GG#X/	.	4GG#X/	lau-	.	.	.	.	.	.	.	.
=63	=63	=63	=63	=63	=63	=63	=63	=63	=63	=63	=63
2.AA/	.	2.AA/	-da-	4d\	.	.	2.a\	lau-	4ff#\]	.	.
.	.	.	.	4e\)	.	.	.	.	4gg\	.	.
.	.	.	.	4d\	lau-	.	.	.	4ff#\	lau-	.
=64	=64	=64	=64	=64	=64	=64	=64	=64	=64	=64	=64
2.AA/	.	2.AA/	-ti-	2d\	-da-	.	2a\	-da-	2ee\	-da-	.
.	.	.	.	4c#\	-ti-	.	(>8a\L	-ti-	4ee\	-ti-	.
.	.	.	.	.	.	.	8g\J)	.	.	.	.
=65	=65	=65	=65	=65	=65	=65	=65	=65	=65	=65	=65
2D/	.	2D\	-o.	2d\	-o.	.	2f#\	-o	2dd\	-o.	.
4r	.	4r	.	4r	.	.	4r	.	4r	.	.
=66	=66	=66	=66	=66	=66	=66	=66	=66	=66	=66	=66
!	!	!LO:N:vis=0.	!	!LO:N:vis=0.	!	!	!	!	!	!	!
0G\	.	0G\	A-	0d\	A-	.	0g\	A-	0b\	A-	.
=67	=67	=67	=67	=67	=67	=67	=67	=67	=67	=67	=67
!	!	!LO:N:vis=0.	!	!LO:N:vis=0.	!	!	!	!	!	!	!
0D\	.	0D\	-men	0d\	-men	.	0f#\	-men	0a\	-men	.
==	==	==	==	==	==	==	==	==	==	==	==
*-	*-	*-	*-	*-	*-	*-	*-	*-	*-	*-	*-
!!!system-decoration: s1,s2,s3,s4,s5
!!!RDF**kern: > = above
!!!RDF**kern: < = below
!!!ENC: Leszek Kubiak
!!!END: 2020-03-06
!!!ENC: Kamil Watkowski
!!!END: 2020-02-05
!!!YEC: Copyright 2022 Narodowy Instytut Fryderyka Chopina (https://polishscores.org)
!!!YEM: License CC-BY-4.0 (https://creativecommons.org/licenses/by/4.0)
